X:1
T:Winter I
T:Vivaldi   arr. Dempsey   Guitar Solo
%%score ( 1 2 )
L:1/8
Q:1/4=80
M:4/4
K:G
V:1 treble-8 nm="Guitar"
V:2 treble-8 
V:1
 !0!eeee eeee | %1
 !0![ef][ef]"^Add little trills when convenient till bar 12."P[ef][ef] P[ef][ef]P[ef][ef] | %2
 [efc'][efc']P[efc'][efc'] P[efc'][efc']P[efc'][efc'] | %3
 [EAfc'][EAfc'][EAfc'][EAfc'] [EAfc'][EAfc'][EAfc'][EAfc'] | %4
 [_EAfc'][EAfc'][EAfc'][EAfc'] [EAfc'][EAfc'][EAfc'][EAfc'] | %5
 [EGBg][EGBg][EGBg][EGBg] [EBg][EBg][EBg][EBg] | %6
 [eac'][eac'][eac'][eac'] [eac'][eac'][eac'][eac'] | [e^gb][egb][egb][egb] [egb][egb][egb][egb] | %8
 [ef^a][efa][efa][efa] [efa][efa][ea][ea] | [=f^gb][fgb][fgb][fgb] [fgb][fgb][fgb][fgb] | %10
 [fb][fb][fb][fb] [Ff^a][Ffa][Ffa][Ffa] | %11
"^This bar is a half-speed fake, but works. See correct version at the end." B/b/b/f/ f/d/d/B/ B/b/b/f/ f/d/d/B/ | %12
 B/4F/4B/4d/4B/4F/4B/4d/4 B/4F/4B/4d/4B/4F/4B/4d/4 [B,Bdf][B,Bdf][B,Bdf][B,Bdf] | %13
 [B,Bdf][B,Bdf][B,Bdf][B,Bdf] d/d'/d'/b/ b/f/f/B/ | %14
 d/d'/d'/b/ b/f/f/B/ d/4B/4d/4f/4d/4B/4d/4f/4 d/4B/4d/4f/4d/4B/4d/4f/4 | %15
 [B,Bdf][B,Bdf][B,Bdf][B,Bdf] [B,Bdf][B,Bdf][B,Bdf][B,Bdf] | %16
 f/f'/f'/d'/ d'/b/b/f/ f/f'/f'/d'/ d'/b/b/f/ | %17
 f/4d/4f/4b/4f/4d/4f/4b/4 f/4d/4f/4b/4f/4d/4f/4b/4 !0!BBBB | %18
 !0![Bc][Bc][Bc][Bc] [A^d][Ad][Ad][Ad] | [EG][EG][EG][EG] [=FA][FA][FA][FA] | %20
 [D^GB][DGB][DGB][DGB] [CAc][CAc][CAc][CAc] | %21
 [C_Bc][CBc][CBc][CBc] [B,^DA=B]/f/4f/4f/4f/4f/4f/4 f/f/f/f/ | %22
 [E,g]/[EGB]/[E,g]/[EGB]/ [E,g]/[EGB]/[E,g]/[EGB]/ [A,EAc]/[Ec]/4[Ec]/4[Ec]/4[Ec]/4[Ec]/4[Ec]/4 [Ec]/[Ec]/[Ec]/[Ec]/ | %23
 [F,Af]/[Dc]/[F,Af]/[Dc]/ [F,Af]/[Dc]/[F,Af]/[Dc]/ [G,FGB]/[DB]/4[DB]/4[DB]/4[DB]/4[DB]/4[DB]/4 [DB]/[DB]/[DB]/[DB]/ | %24
 [Ce]/[EGB]/[Ce]/[EGB]/ [Ce]/[EGB]/[Ce]/[EGB]/ [F,CA]/[CA]/4[CA]/4[CA]/4[CA]/4[CA]/4[CA]/4 [CA]/[CA]/[CA]/[CA]/ | %25
 [B,A^d]/[^DA]/[B,Ad]/[DA]/ [B,Ad]/[DA]/[B,Ad]/[DA]/"^*"[Q:1/4=40] e/4d/4e/4f/4e/4f/4d/4e/4 f/4e/4f/4g/4f/4g/4e/4f/4 | %26
 g/4f/4g/4a/4g/4a/4f/4g/4 a/4g/4a/4b/4a/4b/4g/4a/4 b z/4"^*Another fake needed here. Why not slow down tempo and ad lib till bar 36." b/4c'/4d'/4 e'/4b/4c'/4d'/4e'/4b/4c'/4d'/4 | %27
 e'/4d'/4c'/4b/4e'/4d'/4c'/4b/4 e'/4d'/4c'/4b/4e'/4d'/4c'/4b/4 e/4f/4g/4a/4b/4c'/4d'/4e'/4 e/4f/4g/4a/4b/4c'/4d'/4e'/4 | %28
 c' z/4 a/4b/4c'/4 d'/4a/4b/4c'/4d'/4a/4b/4c'/4 d'/4c'/4b/4a/4d'/4c'/4b/4a/4 d'/4c'/4b/4a/4d'/4c'/4b/4a/4 | %29
 d/4e/4f/4g/4a/4b/4c'/4d'/4 d/4e/4f/4g/4a/4b/4c'/4d'/4 b z/4 g/4a/4b/4 c'/4g/4a/4b/4c'/4g/4a/4b/4 | %30
 c'/4b/4a/4g/4c'/4b/4a/4g/4 c'/4b/4a/4g/4c'/4b/4a/4g/4 f/4a/4g/4f/4b/4a/4g/4f/4 e/4g/4f/4e/4a/4g/4f/4e/4 | %31
 ^d/4B/4A/4B/4F/4B/4A/4B/4 d/4f/4e/4f/4a/4f/4e/4f/4 d/4B/4A/4B/4F/4B/4A/4B/4 d/4f/4e/4f/4a/4f/4e/4f/4 | %32
 ^d/4a/4g/4a/4d/4f/4e/4f/4 A/4c/4B/4c/4^D/4F/4E/4F/4 ^d/d/d/d/ d/d/d/d/ | %33
 z/4 B/4A/4B/4G/4B/4A/4B/4 e/4B/4A/4B/4G/4B/4A/4B/4 ^g/g/g/g/ g/g/g/g/ | %34
 a/4^c/4B/4c/4e/4c/4B/4c/4 A/4c/4B/4c/4e/4c/4B/4c/4 ^a/a/a/a/ a/a/a/a/ | %35
 b/4d/4^c/4d/4f/4d/4c/4d/4 b/4d/4c/4d/4f/4d/4c/4B/4[Q:1/4=80]"^Back to full tempo!" x4 | %36
 d'/4f/4!0!e/4f/4d'/4f/4e/4f/4 d'/4f/4e/4f/4d'/4f/4e/4f/4 x4 | ^cccc d2 z2 | %38
 [de][de][de][de] !0![deg][deg][deg][deg] | !0![dega][dega][dega][dega] [^cega][cega][cega][cega] | %40
 z4 !2!c'/c'/c'/c'/ c'/c'/c'/c'/ | bbbb d'/d'/d'/d'/ d'/d'/d'/d'/ | ^c'c'c'c' g/g/g/g/ g/g/g/g/ | %43
 f/d'/d'/a/ a/f/f/d/ dfac' | b/e'/e'/b/ b/^g/g/e/ egbd' | ^c'/f'/f'/c'/ c'/^a/a/f/ fac'e' | %46
 !4!!2![bd']/[bd']/[bd']/[bd']/ [bd']/[bd']/[bd']/[bd']/ [eb^c']/[bc']/[ebc']/[bc']/ [ebc']/[bc']/[ebc']/[bc']/ | %47
 [a^c']/[ac']/[ac']/[ac']/ [ac']/[ac']/[ac']/[ac']/ [af']/[faf']/[af']/[faf']/ [af']/[faf']/[af']/[faf']/ | %48
 [gf']/[gf']/[gf']/[gf']/ [gf']/[gf']/[gf']/[gf']/ [ge']/[ge']/[fe']/[fe']/ [ge']/[ge']/[ge']/[ge']/ | %49
 [fe']/[fe']/[fe']/[fe']/ [fe']/[fe']/[fe']/[fe']/ [bd']/[bd']/[bd']/[bd']/ [bd']/[bd']/[bd']/[bd']/ | %50
 [bc']/[bc']/[bc']/[bc']/ [ac']/[ac']/[ac']/[ac']/ [ab]/[ab]/[ab]/[ab]/ [gb]/[gb]/[gb]/[gb]/ | %51
 [ga]/[ga]/[ga]/[ga]/ [fa]/[fa]/[fa]/[fa]/ [fg]/[fg]/[fg]/[fg]/ !0![eg]/[eg]/[eg]/[eg]/ | %52
 !0![ef]/[ef]/[ef]/[ef]/ [df]/[df]/[df]/[df]/ [de]/[de]/[de]/[de]/ [ce]/[ce]/[ce]/[ce]/ | %53
 [^df]/[df]/[df]/[df]/ [eg]/[eg]/[eg]/[eg]/ [df]/[df]/[df]/[df]/ [eg]/[eg]/[eg]/[eg]/ | %54
 [fa]/[fa]/[fa]/[fa]/ [eg]/[eg]/[eg]/[eg]/ [^df]/[df]/[df]/[df]/ [eg]/[eg]/[eg]/[eg]/ | %55
"^Some strumming optional from here on, perhaps." [F^d]/[df]/4[df]/4[df]/4[df]/4[df]/4[df]/4 [df]/[df]/[df]/[df]/ [Eg]/[E,B]/[Eg]/[E,B]/ [Eg]/[E,B]/[Eg]/[E,B]/ | %56
 [ce]/[ce]/4[ce]/4[ce]/4[ce]/4[ce]/4[ce]/4 [ce]/[ce]/[ce]/[ce]/ [Af]/[Dc]/[Af]/[Dc]/ [Af]/[Dc]/[Af]/[Dc]/ | %57
 [Bd]/[Bd]/4[Bd]/4[Bd]/4[Bd]/4[Bd]/4[Bd]/4 [Bd]/[Bd]/[Bd]/[Bd]/ [Ge]/[CB]/[Ge]/[CB]/ [Ge]/[CB]/[Ge]/[CB]/ | %58
 [Ac]/[Ac]/4[Ac]/4[Ac]/4[Ac]/4[Ac]/4[Ac]/4 [Ac]/4[Ac]/4[Ac]/4[Ac]/4[Ac]/4[Ac]/4[Ac]/4[Ac]/4 z/4 ^d/4a/4d/4 z/4 d/4a/4d/4 z/4 d/4a/4d/4 z/4 d/4a/4d/4 | %59
 [EGBg]/[EGBg]/4[EGBg]/4[EGBg]/4[EGBg]/4[EGBg]/4[EGBg]/4 [EGBg]/[EGBg]/4[EGBg]/4[EGBg]/4[EGBg]/4[EGBg]/4[EGBg]/4 !1!!0![A,Fcef]/[A,Fcef]/4[A,Fcef]/4[A,Fcef]/4[A,Fcef]/4[A,Fcef]/4[A,Fcef]/4 [A,Fcef]/[A,Fcef]/4[A,Fcef]/4[A,Fcef]/4[A,Fcef]/4[A,Fcef]/4[A,Fcef]/4 | %60
 [B,FB^df]/[B,FBdf]/4[B,FBdf]/4[B,FBdf]/4[B,FBdf]/4[B,FBdf]/4[B,FBdf]/4 [B,FBdf]/[B,FBdf]/4[B,FBdf]/4[B,FBdf]/4[B,FBdf]/4[B,FBdf]/4[B,FBdf]/4 [E,EGBe]/[B,EG]/4[B,EG]/4[B,EG]/4[B,EG]/4[B,EG]/4[B,EG]/4 [B,EG]/[B,EG]/4[B,EG]/4[B,EG]/4[B,EG]/4[B,EG]/4[B,EG]/4 | %61
 !0![Acef]/[Acef]/4[Acef]/4[Acef]/4[Acef]/4[Acef]/4[Acef]/4 [Acef]/[Acef]/4[Acef]/4[Acef]/4[Acef]/4[Acef]/4[Acef]/4 [B,FB^df]/[B,FBdf]/4[B,FBdf]/4[B,FBdf]/4[B,FBdf]/4[B,FBdf]/4[B,FBdf]/4 [B,FBdf]/[B,FBdf]/4[B,FBdf]/4[B,FBdf]/4[B,FBdf]/4[B,FBdf]/4[B,FBdf]/4 | %62
 [E,B,E]8!fine! |] z8 | %64
"^Full speed but unplayable bars 12, 14,  17." B/4b/4b/4f/4f/4d/4d/4B/4 B/4b/4b/4f/4f/4d/4d/4B/4 B/4b/4a/4g/4f/4e/4d/4^c/4 B/4b/4a/4g/4f/4e/4d/4c/4 | %65
 z8 | z4 d/4d'/4d'/4b/4b/4f/4f/4d/4 d/4d'/4d'/4b/4b/4f/4f/4d/4 | %67
 d/4d'/4^c'/4b/4a/4g/4f/4e/4 d/4d'/4c'/4b/4a/4g/4f/4e/4 z4 | %68
 f/4f'/4f'/4d'/4d'/4b/4b/4f/4 f/4f'/4f'/4d'/4d'/4b/4b/4f/4 f/4f'/4e'/4d'/4^c'/4b/4^a/4^g/4 f/4f'/4e'/4d'/4c'/4b/4a/4g/4 |] %69
V:2
 eeee eeee | x8 | x8 | x8 | x8 | x8 | x8 | x8 | x8 | x8 | x8 | [B,F]2 z2 z4 | x8 | x4 [B,F]2 z2 | %14
 x8 | x8 | x8 | z4 BBBB | x8 | E/E,E,E,E,E,E,E,E,/ | E,/E,E,E,E,E,E,E,E,/- | E,/E,E,E,E, z/ z z2 | %22
 x8 | x8 | x8 | x4 E2 ^D2 | E2 F2 G2 G2 | G2 G2 G2 G2 | F2 F2 F2 F2 | F2 F2 G2 E2 | %30
 E,2 E,2 ^D=D^C=C | B,2 B,2 B,2 B,2 | B,2 B,2 [B,FA][B,FA][B,^DA][B,DA] | %33
 [E,B,]2 z2 [E,Bd][E,Bd][E,Bd][E,Bd] | [A,EA]2 z2 [F=ce][Fce][F^Ae][FAe] | %35
 [F,B,D]2 z2 [A,eg^c'][A,egc'][A,egc'][A,egc'] | [A,D]2 z2 [G,B,Ed][G,B,Ed][G,B,Ed][G,B,Ed] | %37
 [A,E][A,E][A,E][A,E] [DA]DDD | x8 | x8 | !0![efa][efa][efa][efa] !1!!3![Aef][Aef][Aef][Aef] | %41
 !1!!0![GBd][GBd][GBd][GBd] !1![Be^g][Beg][Beg][Beg] | %42
 [Ae=g][Aeg][Aeg][Aeg] [A,E^c][A,Ec][A,Ec][A,Ec] | [A,D]2 z2 F2 D2 | G2 z2 ^G2 E2 | A,2 z2 ^A2 f2 | %46
 !1!BBBB x4 | ffff ffff | BBBB ^cccc | dddd dddd | eeff GGGG | ^ccdd E,E,!1!EE | ^AABB cccc | %53
 BBBB BBBB | BBBB BBBB | B,4 x4 | [G,G]4 x4 | [G,F]4 x4 | [F,E]4 B,FB,F | x8 | x8 | x8 | x8 |] x8 | %64
 [B,FB]2 x6 | x8 | x8 | x8 | x8 |] %69

